X:1
T:HALLOWE'EN DANCE
T:HALLOWE'EN DANCE
T:H. ENGELMANN
T:1908
T:1908
T:1908
T:1908
T:1908
C:H. ENGELMANN
Z:1908
%%score { ( 1 4 5 ) | ( 2 3 ) }
L:1/8
Q:1/4=116
M:2/4
K:Bb
V:1 treble nm="Piano" snm="Pno."
V:4 treble 
V:5 treble 
V:2 bass 
V:3 bass 
V:1
"^Allegretto"!mf! .G,(.G,/.A,/) .B,(B,/C/) | .D .!^![^F,CD]2 (D/4C/4B,/4A,/4) | %2
"^mistirioso." .G,!p!(G/A/) .BB/c/ | !^![^Fcd]3!f! (d | !>![Gdg])(g/d/) !>![cf](f/c/) | %5
 !>![Bf](e/B/) !>![Ad](d/A/ | [Gc]) !^![GAc]2 !>![G^A^c] | !>![^FAd] z!p! (D/C/B,/A,/) | %8
 .G, x3/2 (D/^C/D/) | !>!=E2 !>!D2 | z!<(! x3/2 (D/^C/D/)!<)! | !>!E2 !>!D2 || %12
!p! .G(G/A/ .B)(B/c/ | d)(.d/^c/ .d/B/G) |!f! .[GAeg] !>![GAeg]2 .[GAeg] | !>![GBd]3 (D | %16
 .G)(G/A/ .B)(B/c/ | .d)(d/^c/ d/B/).G |!<(! .[^CGA] !>![CGA]2 .[CGA]!<)! |!>(! !>![C^FA]3 D!>)! | %20
 .G(G/A/ .B)(B/c/ | .d)(d/^c/ d/B/G) |!f! .[GAeg] !>![GAeg]2 .[GAe] | !>![GBd]2 (ed) | %24
 !>!A/(g/^f/g/) !>!G/(g/f/g/) | !>!A/(g/^f/g/) !>!G/(g/f/g/) | .[GBd] !>![GBd]2 D | %27
 D z!>(! (D/C/B,/A,/)!>)! | x (G/A/ B)(B/c/ | d)^c/(d/ d/B/G) | .[GAeg] [GAeg]2 .[GAe] | %31
 [GBd]3 (D | G)(G/A/ B)(B/c/ | d)(d ^c/B/)G | .[^CGA] !>![CGA]2 .[CGA] | !>![C^FA]3 (D | %36
 G)(G/A/ .B)(B/c/ | .d)(d/^c/ d/B/)G | .[GAeg] !>![GAeg]2 .[GAe] | !^![GBd]3 (d/c/) | %40
!<(! !>!c/(g/^f/g/) !>!B/(g/f/g/) | !>!A/(g/^f/g/) !>!G/(g/f/g/)!<)! | [GBd] !>![GBd]2 (B | %43
 !>!B) z !^![GBdg] z ||"^Animato"!mf! .F !>![Fd]2 (F | !>![Ge]2) !>![Fd]2 | .=E [EG]2 .[EBd] | %47
 !^![=EBc]4 | ._E !>!F2 .A | !>![FAd]2 [EAc]2 | .[EAc] !>![DFB]2 d | (g/f/g/f/) (G/F/G/F/) | %52
 .F !>![Fd]2 (F | !>![Ge]2) !>![Fd]2 | .=E !>![EG]2 [EBd] | [=EBc]4 | .c !>![Ad]2 .[Af] | %57
!<(! !>![=EG]2 !>![_EA]2!<)! |1 [DB]!<(! z/ x/ =gf!<)! | [Ae]2!>(! (e/c/A/G/)!>)! :|2 %60
!ff! [DB] z/ [B,B]/ [Cc][^C^c] | [Dd] z (D/C/B,/A,/) ||"^atempo"!p! G,(G/A/ B)(B/c/ | %63
 d)(d/^c/ d/B/)G | .[GA_eg] !>![GAeg]2 .[GAe] | !>![GBd]3 (D | G)(G/A/ B)(B/c/ | d)(d/^c/ d/B/)G | %68
 .[^CGA] !>![CGA]2 .[CGA] | !>![C^FA]3 (D | G)(G/A/ B)(B/c/ | d)(d/^c/ d/B/)G | %72
 .[GAeg] !>![GAeg]2 .[GAe] | !>![GBd]3 e/d/ | c/(g/!<(!^f/g/) B/(g/f/g/) | %75
 A/(g/^f/g/)!<)! G/(g/f/g/) | .[GBd] !>![GBd]2 (.[Ad-] | [Gd]) z [GBdg] z || %78
[K:G][K:treble]"^TRIO.""_staccato" .B"^Scherzando".d .B.D | .B.e .B.E | (B/A)(G/ !>!E2) | %81
!pp! (b/a)(g/ e2) |!p! .A.d B.E | .A.d .B.E |!<(! (A/G)A/ .e.d!<)! | %85
 (!>![Fce]d) z/ d/!>(!^c/=c/!>)! |!p! .B.d .B.D | .B.e .B.E | (B/A)(G/ !>!E2) |!pp! (b/a)(g/ e2) | %90
!f! .[Bb].[dd'] .[Bb].[Gg] | .[Fe] !>![A^ca]2 x | (!>!A4 |1 G).d/.d/ .d.d ::2 %94
 [GBg](b/d'/ e'/d'/c'/b/) |:"^Maestoso" x .[GB]/.[GB]/ .[FB].[EB] | x x/ x/ x/ x/ x/ x/ | %97
!>(! z .[Gc]/.[Gc]/!>)! .[Fc].[Ec] | x!<(! (c'/d'/ e'/d'/c'/a/)!<)! |!<(! !>!c2 !>![df]2!<)! | %100
!>(! !>![Bdb]2 !>![Aca]2!>)! | [Ff][Gg] d2- | d!mf! x/ x/ x/ x/ x/ x/ | z .[GB]/.[GB]/ .[FB].[EB] | %104
!<(! x (b/d'/ e'/d'/c'/e/)!<)! | z .[ce]/.[ce]/ .[ce].[ce] | x!<(! !>![Ee] !>![Ff]!>![Gg]!<)! | %107
 .[Bb] !>![dd']2 (d | .[Aa]) !>![dd']2 ([Bb] | [GBg]4) |1!mf! x (b/d'/ e'/d'/b/g/) :|2 %111
 G z x!f! D ||[K:Bb][K:treble]!p! .G(G/A/ .B)(B/c/ | .d)d/(^c/ d/B/)G | %114
!f! .[GA_eg] !>![GAeg]2 .[GAe] | !>![GBd]3 D | .G(G/A/ .B)(B/c/ | .d)(d/^c/ d/B/).G | %118
 .[^CGA] !>![CGA]2 .[CGA] | !>![C^FA]3 D | .GG/A/ .B(B/c/ | .d)(d/^c/ .dB/)G/ | %122
!f! .[GAeg] !>![GAeg]2 .[GAe] | [GBd]3 (e/d/) | !>!c/(g/!<(!^f/g/) !>!B/(g/f/g/) | %125
 !>!A/(g/^f/g/) !>!G/(g/f/!<)!g/) | .[GBd] !>![GBd]2 (D | D) z (D/C/B,/A,/) | x (G/A/ B)(B/c/ | %129
 d)(d/^c/ d/B/G) | .[GAeg] !>![GAeg]2 .[GAe] | !>![GBd]3 (D | G)(G/A/ B)(B/c/ | d)(d/^c/ d/B/G) | %134
 .[^CGA] !>![CGA]2 .[=CGA] | !>![C^FA]3 D | G(G/A/ B)(B/c/ | .d)(d/^c/ d/B/G) | %138
 .[GAeg] !>![GAeg]2 .[GAe] | !^![GBd]3 (e/d/) | c/!<(!(g/^f/g/) B/(g/f/g/) | %141
 A/(g/^f/g/) G/(g/f/g/)!<)! | .[GBd] !>![GBd]2 ([cd] | [cd]) z !^![GBdg] z || %144
"^Animato"!mf! F !>![Fd]2 (F | !>![Ge]2) !>![Fd]2 | .=E !>![EG]2 .[EBd] | !^![=EBc]4 | %148
 ._E !>!F2 .A | [FAd]2 [EAc]2 | [EAc] !>![DFB]2 (d | g/)(f/g/f/) (G/F/G/F/) | .F !>![Fd]2 (F | %153
 !>![Ge]2) !>![Fd]2 | .=E !>![EG]2 .[EBd] | [=EBc]4 | .c !>![Ad]2 .[Af] | !>![=EG]2 !>![_EA]2 | %158
 !>![=EG]2 !>![_EA]2 |1 [DB] z/ f/ ^G2 | [Ae]2 x2 :|2 [EB] z/ [DB]/ [Cc][^C^c] | %162
 [Dd] z (D/C/B,/A,/) ||!p! G,((G/A/ A))(B/c/ | d)(d/^c/ d/B/G) | .[GAeg] !>![GAeg]2 .[GAe] | %166
 !>![GBd]3 (D | G)(G/A/ B)(B/c/ | d)(d/^c/ d/B/)G | .[^CGA] !>![CGA]2 .[=CGA] | !>![C^FA]3 (D | %171
 G)(G/A/ B)(B/c/ | d)(d/^c/ d/B/)G | .[GAeg] !>![GAeg]2 .[GAe] | !>![GBd]3 e/d/ | %175
 c/!<(!(g/^f/g/) B/(g/^f/g/) | A/(g/^f/g/) G/!<)!(g/^f/g/) | .[GBd] !>![GBd]2 (.[cd] | %178
 [Bd]) z [GBdg] z!fine! |] %179
V:2
 .G,,.C, .D,,.D, | .A,,.D, .D,,.D, | .G,,.D, .D,,.A,, | .A,,.D, .D,, z | ([B,,B,]2 [A,,A,]2 | %5
 [G,,G,]2 [F,,F,]2) | .[E,,_D,] !>![E,,D,]2 (E,, | D,,) z (D,/C,/B,,/A,,/) | G,, !>!D,2 D,, | %9
 (!>!A,,E,) (!>!D,,D,) | G,, !>!D,2 D,, | (!>!A,,_E,) (!>!D,,D,) || G,,[B,D] D,[B,D] | %13
 G,[B,D] D,[B,D] | !tenuto![G,CE] !tenuto![G,CE]2 !tenuto![G,CE] | [G,,G,][B,D] D,[^F,C] | %16
 G,[B,D] D,[B,D] | G,[B,D] D,[B,D] | [=E,,=E,] .[E,,E,]2 [_E,,_E,] | [D,,D,]C, B,,A,, | %20
 G,,[B,D] D,[B,D] | G,[B,D] D,[B,D] | [G,C=E] [G,CE]2 [G,CE] | [F,,F,][B,D] D,[B,D] | %24
 (!>![F,,E,]2 !>![D,,D,]2 | !>![C,,C,]2 !>![^C,,^C,]2) | .[D,G,B,] [D,G,B,]2 (D,, | %27
 G,,) z (D,/C,/B,,/A,,/) | G,,[B,D] D,[B,D] | G,[B,D] D,[B,D] | [G,CE] [G,CE]2 [G,CE] | %31
 [G,,G,][B,D] D,[^F,C] | G,[B,D] D,[B,D] | G,[B,D] D,[B,D] | [=E,,=E,] [E,,E,]2 [_E,,_E,] | %35
 [D,,D,](C, B,,A,,) | G,,[B,D] D,[B,D] | G,[B,D] D,[B,D] | [G,CE] [G,CE]2 [G,CE] | %39
 [G,,G,][B,D] D,[B,D] | (!>![E,,E,]2 !>![D,,D,]2 | !>![C,,C,]2 !>![^C,,^C,]2) | %42
 [D,F,B,] [D,F,B,]2 (D,, | G,,) z !^![G,,,G,,] z || .[B,,,B,,] !>![F,B,D]2 [F,B,D] | %45
 D,[B,D] F,[B,D] | .C, !>![G,B,C]2 [G,B,C] | G,[B,C] C,[G,B,C] | [G,,G,] [F,A,E]2 [F,A,E] | %49
 F,[A,E] F,[A,C] | [B,,,B,,] [F,B,]2 [F,B,D] | [C,,C,][A,E] F,[A,E] | [B,,B,] [F,B,D]2 [F,B,D] | %53
 G,,[F,G,=B,] D,[F,G,B,] | D, [F,B,C]2 [F,B,C] | G,,[G,B,D] C,[G,B,C] | [G,,G,] [F,A,_E]2 [F,A,E] | %57
 F,,F, F,,F, |1 [B,,F,] z [B,,,=B,,]2 | ([C,,C,]2 F,,2) :|2 [B,,F,] z/ [D,,D,]/ [C,,C,][^C,,^C,] | %61
 [F,,F,] z (D,/C,/B,,/A,,/) || G,,[B,D] D,[B,D] | G,[B,D] D,[B,D] | [F,CE] [F,CE]2 [F,CE] | %65
 [G,,G,][B,D] D,[^F,C] | G,[B,D] D,[B,D] | G,[B,D] D,[B,D] | .[=E,,=E,] [E,,E,]2 .[_E,,_E,] | %69
 [D,,D,]C, B,,A,, | G,,[B,D] D,[B,D] | G,[B,D] D,[B,D] | [G,CE] [G,CE]2 [G,CE] | %73
 [G,,G,][B,D] D,[B,D] | [E,,E,]2 [D,,D,]2 | [C,,C,]2 [^C,,^C,]2 | [D,G,_B,] [D,G,B,]2 (D,, | %77
 G,,) z [G,,,G,,] z ||[K:G][K:bass] [G,,G,][G,B,] D,[G,B,] | [^F,,^G,][_B,D] E,[B,D] | %80
 [G,,G,][G,A,^C] C,[G,A,C] | A,,[G,A,^C] E,[G,A,C] | D,[F,A,C] D,[F,A,C] | A,,[F,A,C] D,[F,A,C] | %84
 [G,,G,][G,B,] D,[G,B,] | [A,,A,]2 !>![D,,D,]2 | [G,,G,][B,D] C,[B,D] | [A,,A,][G,A,^C] E,[G,A,C] | %88
 [F,,F,][G,A,^C] E,[G,A,C] | A,,[G,A,^C] E,[G,C] | [D,,D,][G,B,] D,[G,B,] | [A,,,A,,] [G,A,^C]3 | %92
 z !>![D,,D,] !>![E,,E,]!>![F,,F,] |1 !>![G,,G,] z z2 ::2 [G,,G,] z z2 |: [G,,G,][G,B,] D,[G,B,] | %96
 G,,[G,B,] D,[G,B,] | A,,[F,C] D,[F,C] | A,,[F,C] D,[F,C] | [D,,D,][F,C] D,[F,C] | %100
 z !>![D,,D,] !>![E,,E,]!>![F,,F,] | [B,D]D, [B,D] z | [D,G,B,] z z2 | G,,[G,B,] D,[G,B,] | %104
 G,,[G,B,] D,[G,B,] | [C,,C,][A,C] E,[A,C] | [E,A,C] z z2 | x [D,G,B,]2 x | [D,,D,] [D,F,C]2 z | %109
 [G,,G,]>E, D,B,, |1 G,, z z2 :|2 G,, z !>![G,,,G,,] z/ z/ ||[K:Bb][K:bass] G,,[B,D] D,[B,D] | %113
 G,[B,D] D,[B,D] | [G,CE] [G,CE]2 [G,CE] | G,,[B,F] D,[^F,C] | G,[B,D] D,[B,D] | G,[B,D] D,[B,D] | %118
 .[=E,,=E,] !>![E,,E,]2 .[_E,,_E,] | !>![D,,D,](C, B,,A,,) | G,,[B,D] D,[B,D] | G,[B,D] D,[B,D] | %122
 [G,CE] [G,CE]2 [G,CE] | [G,,G,][B,D] D,[B,D] | (!>![E,,E,]2 !>![D,,D,]2 | %125
 !>![C,,C,]2 !>![^C,,^C,]2) | .[D,G,B,] !>![D,G,B,]2 (D,, | G,,) z (D,/C,/B,,/A,,/) | %128
 G,,[B,D] D,[B,D] | G,!tenuto!B, D,!tenuto!B, | [G,CE] [G,CE]2 [G,CE] | [G,,G,][B,D] D,[^F,C] | %132
 D,[B,D] D,[B,D] | G,[B,D] D,[B,D] | [=E,,=E,] [E,,E,]2 [_E,,_E,] | [D,,D,]C, B,,A,, | %136
 G,,[B,D] D,[B,D] | G,[B,D] D,[B,D] | [G,CE] [G,CE]2 [G,CE] | [G,,G,][B,D] D,[B,D] | %140
 (!>![E,,E,]2 !>![D,,D,]2 | !>![C,,C,]2 !>![^C,,^C,]2) | [D,G,_B,] [D,G,B,]2 (D,, | %143
 G,,) z (G,,, z || B,,,) [F,B,D]2 [F,B,D] | D,[B,D] F,[B,D] | C, [G,B,C]2 [G,B,C] | %147
 G,[B,C] C,[G,B,C] | [F,,F,] [F,A,E]2 [F,A,E] | F,[A,E] F,[A,C] | [B,,,B,,] [F,B,]2 [F,B,D] | %151
 [C,,C,][A,E] F,[A,E] | [B,,B,] [F,B,D]2 [F,B,D] | G,,[F,G,=B,] D,[F,G,B,] | C, [G,B,C]2 [G,B,C] | %155
 G,,[G,B,C] C,[G,B,C] | [G,,G,] [F,A,E]2 [F,A,E] | F,,F, F,,F, | [B,,F,] z [=B,,,=B,,]2 |1 %159
 [B,,F,] z [=B,,,=B,,]2 | ([C,,C,]2 F,,2) :|2 [B,,F,] z/ [D,,D,]/ [C,,C,][^C,,^C,] | %162
 [D,,D,] z (D,/C,/B,,/A,,/) || G,,[B,D] D,[B,D] | G,[B,D] D,[B,D] | [G,CE] [G,CE]2 [G,CE] | %166
 [G,,G,][B,D] D,[^F,C] | G,[B,D] D,[B,D] | G,[B,D] D,[B,D] | [=E,,=E,] [E,,E,]2 [_E,,_E,] | %170
 [D,,D,](C, B,,A,,) | G,,[B,D] D,[B,D] | G,[B,D] D,[B,D] | [G,CE] [G,CE]2 [G,CE] | %174
 [G,,G,][B,D] D,[B,D] | [E,,E,]2 [D,,D,]2 | [C,,C,]2 [^C,,^C,]2 | [D,G,B,] [D,G,B,]2 [D,,D,] | %178
 [G,,G,] z [G,,,G,,] z |] %179
V:3
 x4 | x4 | x4 | x4 | x4 | x4 | x3 (_E, | D,) z z2 | x4 | x4 | x4 | x4 || x4 | x4 | x4 | x4 | x4 | %17
 x4 | x4 | x4 | x4 | x4 | x4 | x4 | x4 | x4 | x3 (D, | G,) x3 | x4 | x4 | x4 | x4 | x4 | x4 | x4 | %35
 x4 | x4 | x4 | x4 | x4 | x4 | x4 | x3 (D, | G,) x3 || x4 | x4 | x4 | x4 | x4 | x4 | x4 | x4 | x4 | %53
 x4 | x4 | x4 | x4 | x4 |1 x4 | x4 :|2 x4 | x4 || x4 | x4 | x4 | x4 | x4 | x4 | x4 | x4 | x4 | x4 | %72
 x4 | x4 | x4 | x4 | x3 (D, | G,) x3 ||[K:G][K:bass] x4 | x4 | x4 | x4 | x4 | x4 | x4 | x4 | x4 | %87
 x4 | x4 | x4 | x4 | x4 | x4 |1 x4 ::2 x4 |: x4 | x4 | x4 | x4 | x4 | x4 | x4 | x4 | x4 | x4 | x4 | %106
 x4 | [D,,D,] x3 | x4 | x4 |1 x4 :|2 x4 ||[K:Bb][K:bass] x4 | x4 | x4 | x4 | x4 | x4 | x4 | x4 | %120
 x4 | x4 | x4 | x4 | x4 | x4 | x3 (D, | G,) x3 | x4 | x4 | x4 | x4 | x4 | x4 | x4 | x4 | x4 | x4 | %138
 x4 | x4 | x4 | x4 | x3 (D, | G,) x (G,, x || B,,) z z2 | x4 | x4 | x4 | x4 | x4 | x4 | x4 | x4 | %153
 x4 | x4 | x4 | x4 | x4 | x4 |1 x4 | x4 :|2 x4 | x4 || x4 | x4 | x4 | x4 | x4 | x4 | x4 | x4 | x4 | %172
 x4 | x4 | x4 | x4 | x4 | x4 | x4 |] %179
V:4
 x4 | x4 | x4 | x4 | x4 | x4 | x4 | x4 | x !^![G,B,D]3/2 x3/2 | x [G,C] z [^F,C] | %10
 x !^![G,B,D]3/2 x3/2 | z [F,C] z [^F,C] || x4 | x4 | x4 | x4 | x4 | x4 | x4 | x4 | x4 | x4 | x4 | %23
 x4 | x4 | x4 | x3 (x | x) x3 | G, x3 | x4 | x4 | x4 | x4 | x4 | x4 | x4 | x4 | x4 | x4 | x4 | x4 | %41
 x4 | x4 | x4 || x4 | x4 | x4 | x4 | x4 | x4 | x4 | x4 | x4 | x4 | x4 | x4 | x4 | x4 |1 %58
 x3/2 f/ ^G2 | (gf) x2 :|2 x4 | x4 || x4 | x4 | x4 | x4 | x4 | x4 | x4 | x4 | x4 | x4 | x4 | x4 | %74
 x4 | x4 | x3 c | B x3 ||[K:G][K:treble] x4 | x4 | x4 | x4 | x4 | x4 | x4 | x4 | x4 | x4 | x4 | %89
 x4 | x4 | x3 B | ((=c4 |1 B)) x3 ::2 x4 |: e4 | .[DB] x3 | x4 | [Dc]/ x7/2 | x4 | x4 | x4 | %102
 x (b/d'/ e'/d'/b/g/) | !>!e4 | x4 | x4 | x4 | x4 | x4 | x4 |1 x4 :|2 x3 z/!ppp! x/ || %112
[K:Bb][K:treble] z4 | x4 | x4 | x4 | x4 | x4 | x4 | x4 | x4 | x4 | x4 | x4 | x4 | x4 | x3 z | x4 | %128
 G, x3 | x4 | x4 | x4 | x4 | x4 | x4 | x4 | x4 | x4 | x4 | x4 | x4 | x4 | x4 | x4 || x4 | x4 | x4 | %147
 x4 | x4 | x4 | x4 | x4 | x4 | x4 | x4 | x4 | x4 | x4 | x4 |1 x4 | x4 :|2 x4 | x4 || x4 | x4 | x4 | %166
 x4 | x4 | x4 | x4 | x4 | x4 | x4 | x4 | x4 | x4 | x4 | x4 | x4 |] %179
V:5
 x4 | x4 | x4 | x4 | x4 | x4 | x4 | x4 | x4 | x4 | x4 | x4 || x4 | x4 | x4 | x4 | x4 | x4 | x4 | %19
 x4 | x4 | x4 | x4 | x4 | x4 | x4 | x3 (([C_A] | [B,G])) x3 | x4 | x4 | x4 | x4 | x4 | x4 | x4 | %35
 x4 | x4 | x4 | x4 | x4 | x4 | x4 | x3 ([G^f] | [Gg]) z z2 || x4 | x4 | x4 | x4 | x4 | x4 | x4 | %51
 x4 | x4 | x4 | x4 | x4 | x4 | x4 |1 x4 | x4 :|2 x4 | x4 || x4 | x4 | x4 | x4 | x4 | x4 | x4 | x4 | %70
 x4 | x4 | x4 | x4 | x4 | x4 | x3 (^f | g) x3 ||[K:G][K:treble] x4 | x4 | x4 | x4 | x4 | x4 | x4 | %85
 x4 | x4 | x4 | x4 | x4 | x4 | x3 (b | (a4) |1 g) x3 ::2 x4 |: x4 | x (b/d'/ e'/d'/b/g/ | =f4) | %98
 x4 | x4 | x4 | x2 (D2 | E) z z2 | x4 | .[DB]/ x7/2 | !>![eac'e']4 | [EAc] x3 | x4 | x4 | %109
 x3/2 (e/ .d).B |1 .G x3 :|2 x2 !>![GBg] x ||[K:Bb][K:treble] x4 | x4 | x4 | x4 | x4 | x4 | x4 | %119
 x4 | x4 | x4 | x4 | x4 | x4 | x4 | x3 ([C^F] | [B,G]) x3 | x4 | x4 | x4 | x4 | x4 | x4 | x4 | x4 | %136
 x4 | x4 | x4 | x4 | x4 | x4 | x3 ([A^f] | [Ag]) x3 || x4 | x4 | x4 | x4 | x4 | x4 | x4 | x4 | x4 | %153
 x4 | x4 | x4 | x4 | x4 | x4 |1 x2 !>!gf | (gf) (e/c/A/E/) :|2 x4 | x4 || x4 | x4 | x4 | x4 | x4 | %168
 x4 | x4 | x4 | x4 | x4 | x4 | x4 | x4 | x4 | x3 ([A^f] | [Gg]) x3 |] %179

